X: 39944
T: Thore's Schottis
R: barndance
M: 4/4
K: Dmajor
|:AG|F2 D2 D<FA<F|G2 E2 E2 A<d|c2 cB A<ce<c|d>cd<f A>BA<G|
F2 D2 D<FA<F|G2 E2 E2 A<d|c2 cB A<ce<c|d2 d<c d2:|
|:d<f|a2 ab ag f2|g2 ga gfec|A2 Ac e<cA<c|d>cd<e f>ef<g|
a2 ab ag f2|g2 ga gfec|A2 Ac e<cA<c|d2 d<c d2:|

